X:1
T:Resignation
T:Joseph Funk, 1832 F Major       Arranged by William Walker, 1846
T:Isaac Watts, 1719 (Psalm 23)                         86. 86. D. (C.M.D.)
T:Transcribed from Southern and Wetstern Pocket Harmonist, 1846.
%%score [ 1 2 3 4 ]
L:1/8
Q:1/4=150
M:3/2
K:F
V:1 treble nm="Tr." snm="Tr."
V:2 treble nm="A." snm="A."
V:3 treble-8 nm="T." snm="T."
V:4 bass nm="B." snm="B."
V:1
"_My       shepherd  will  supply my  need,  Je – ho –vah  is   his  name;\n In      pastures  fresh  he makes me feed,  Be –side the  living  stream.""_1. {" c4 |: %1
 c8 (A2 c2) | f8 g4 | c8 (d2 c2) | d8 f4 | f8 c4 | d8 (c2 d2) |1"_}" f8 c4 :|2 %8
 f8"_He brings my wandering spirit back  When I   forsake  his  ways; And leads me," f4 || c8 f4 | %10
 d8 d4 | c8 f4 | g8 f4 | d8 f4 | c8 c4 | f8 f4 | c8 (A2 c2) | %17
"_for  his   mercy's      sake,  In     paths  of  truth  and   grace." f8 g4 | c8 (d2 c2) | %19
 d8 f4 | f8 c4 | d8 (c2 d2) | [cf]12 |] %23
V:2
"_When I walk through the shades of death,  Thy presence is  my  stay;\n  A        word  of  thy  supporting  breath  Drives all  my  fears   away.""_2. {" F4 |: %1
 A8 (F2 G2) | F8 (C2 F2) | F8 (A2 G2) | F8 C4 | F8 F4 | A8 G4 |1"_}" F8 F4 :|2 %8
 F8"_Thy hand, in  sight  of  all  my  foes,  Doth still my  table spread,  My  cup  with" F4 || %9
 A8 F4 | D8 C4 | E8 (F2 A2) | F8 (A2 F2) | D8 (F2 A2) | F8 E4 | F8 F4 | A8 (F2 G2) | %17
"_blessings o  –  ver  – flows,  Thine  oil   anoints   my     head." F8 C4 | F8 (A2 F2) | A8 C4 | %20
 F8 F4 | A8 G4 | F12 |] %23
V:3
"_The      sure   provisions  of   my    God   Attend   me   all  my   days:\nO          may  thy  house be mine  abode,  And all my work be praise!""_3. {" (F2 A2) |: %1
 c8 (A2 G2) | A8 c4 | f8 (d2 c2) | A8 (F2 A2) | c8 F4 | A8 G4 |1"_}" F8 (F2 A2) :|2 %8
 F8"_There would I find  a  settled    rest,  While  others  go and come;  No  more  a" c4 || %9
 f8 (a2 f2) | d8 f4 | g8 (f2 d2) | c8 (A2 c2) | d8 (c2 d2) | f8 g4 | f8 (F2 A2) | c8 (A2 G2) | %17
"_stranger   or     a      guest,   But    like   a    child   at     home." A8 c4 | f8 (d2 c2) | %19
 A8 (F2 A2) | c8 F4 | A8 G4 | F12 |] %23
V:4
 F,4 |: C,8 (F,2 G,2) | A,8 G,4 | F,8 (G,2 A,2) | F,8 C4 | A,8 F,4 | D,8 [C,G,]4 |1 F,8 F,4 :|2 %8
 F,8 A,4 || F,8 F,4 | F,8 F,4 | C8 (F,2 A,2) | G,8 (A,2 C2) | F,8 (C2 A,2) | F,8 C,4 | F,8 F,4 | %16
 C,8 (F,2 G,2) | %17
"^_______________________________________________________________________________\nA folk hymn, first arranged by Joseph Funk in his \nCompilation of Genuine Church Music\n, 1832, \n   to words by Charles Wesley, 1759, which begin \nAnd let this feeble body fail\n; this book was \n   renamed \nHarmonia Sacra\n in 1851, and has gone through many editions down to the present. \n   A slightly different arrangement (in F) appears in William Walker's \nSouthern and Western \n   Pocket Harmonist\n, 1846, with words as above. The tune (usually with Watts' words) is very \n   commonly found in hymnals and tunebooks." A,8 G,4 | %18
 F,8 (G,2 A,2) | F,8 C4 | A,8 F,4 | D,8 C,4 | F,12 |] %23

